svgs/entrust_identity.svg

<svg width="192" height="192" viewBox="0 0 192 192" fill="none" xmlns="http://www.w3.org/2000/svg">
<g id="Identity">
<path id="Polygon 3" d="M93 23.7321C94.8564 22.6603 97.1436 22.6603 99 23.7321L157.086 57.2679C158.942 58.3397 160.086 60.3205 160.086 62.4641V129.536C160.086 131.679 158.942 133.66 157.086 134.732L99 168.268C97.1436 169.34 94.8564 169.34 93 168.268L34.9141 134.732C33.0577 133.66 31.9141 131.679 31.9141 129.536V62.4641C31.9141 60.3205 33.0577 58.3397 34.9141 57.2679L93 23.7321Z" stroke="black" stroke-width="12" stroke-linejoin="round"/>
<path id="Polygon 4" d="M137.607 69.113L99.0085 46.7436C97.1478 45.6652 94.8522 45.6652 92.9915 46.7436L54.9915 68.7663C53.1399 69.8394 52 71.8175 52 73.9575V117.542C52 119.683 53.1399 121.661 54.9915 122.734L92.9977 144.76C94.8551 145.836 97.1461 145.839 99.0054 144.765L139.891 121.169C139.959 121.13 140 121.058 140 120.98C140 120.813 139.82 120.709 139.675 120.791L113.568 135.668C109.568 137.947 104.598 135.059 104.598 130.455V118.5L139.895 97.5625C139.96 97.5237 140 97.4535 140 97.3775C140 97.2109 139.819 97.1076 139.675 97.1926L104.598 118V100.417C104.598 98.2988 105.715 96.3374 107.537 95.2567L137.649 77.3947C139.106 76.5301 140 74.9609 140 73.2662C140 71.554 139.088 69.9715 137.607 69.113Z" stroke="black" stroke-width="12" stroke-linejoin="round"/>
</g>
</svg>

<svg width="192" height="192" viewBox="0 0 192 192" fill="none" xmlns="http://www.w3.org/2000/svg"><path d="M92.957 22.814a6.093 6.093 0 0 1 6.086 0l58.914 33.962A6.075 6.075 0 0 1 161 62.038v67.924c0 2.17-1.16 4.176-3.043 5.262l-58.914 33.962a6.096 6.096 0 0 1-6.086 0l-58.914-33.962A6.076 6.076 0 0 1 31 129.962V62.038c0-2.17 1.16-4.177 3.043-5.262l58.914-33.962Z" stroke="#000" stroke-width="12" stroke-linejoin="round"/><path d="m137.607 69.113-38.599-22.37a6 6 0 0 0-6.016 0l-38 22.023A6 6 0 0 0 52 73.957v43.585a6 6 0 0 0 2.992 5.192l38.006 22.026a5.999 5.999 0 0 0 6.007.005l40.886-23.596a.218.218 0 0 0-.216-.378l-26.107 14.877c-4 2.279-8.97-.609-8.97-5.213V118.5l35.297-20.938a.215.215 0 0 0-.22-.37L104.598 118v-17.583a6 6 0 0 1 2.939-5.16l30.112-17.862a4.801 4.801 0 0 0-.042-8.282Z" stroke="#000" stroke-width="12" stroke-linejoin="round"/></svg>
